X:29
T:Polonäs
T:ur Johan Erik Carlssons notbok (nr 29)
B:Johan Erik Carlssons notbok, nr 29
B:http://www.smus.se/earkiv/fmk/browselarge.php?lang=sw&katalogid=MMD+67&bildnr=00019
O:Snavlunda, Närke / Bona, Östergötland
R:Slängpolska
Z:Nils Liberg
M:3/4
L:1/16
K:Am
e2ec A2Ac B2Bd | c2c2 d2f2 f2e2 | e2ec A2Ac B2Bd | cBA^G A4 A,4 ::
ABcd e2g2 g2a2 | g2f2 d2f2 e2e2 | ABcd e2g2 g2a2 | g2f2 d2f2 e2e2 |
e2ec A2Ac B2Bd | c2c2 d2f2 f2e2 | e2ec A2Ac B2Bd | cBA^G A4 A,4 :|

